src/assets/images/logos/logo-01.svg

<svg height="40" viewBox="0 0 175 40" width="175" xmlns="http://www.w3.org/2000/svg"><g fill="none" fill-rule="evenodd"><path d="m0 0h175v40h-175z"/><g transform="translate(7 7)"><g fill="#fefbf7" transform="translate(71.604938 .25)"><path d="m2.66666667 23.925h-2.66666667l2.91358025-21.25h-2.7654321l.37037037-2.575h8.14814815l-.37037037 2.575h-2.7654321z"/><path d="m14.4691358.1h2.6419753l-3.2839506 23.825-2.6419753-.025z"/><path d="m26.1975309.1.2716049 19.475 5.7283951-19.475h3.3086419l-3.3333333 24.1h-2.4444444l1.1111111-8.225c.3703703-2.675 1.2098765-7.925 1.6296296-10.3l-5.308642 18.4-2.5185185-.15-.2716049-18.3c-.3950618 2.85-.7901235 7.1-1.2098766 10.325l-1.0864197 7.975h-2.4444445l3.2839506-23.825z"/><path d="m40.962963 21.6h4.3209876l-.345679 2.575h-6.962963l3.3333334-24.1h6.9629629l-.3703703 2.6h-4.3209877l-1.1358025 8.075h3.7283951l-.345679 2.475h-3.7283951z"/></g><path d="m62.2469136.35 37.1604938 24.075h-47.4567901l3.3333333-24.075z" fill="#f7941d"/><g fill="#fefbf7"><path d="m6.12345679 17.625c.96296296-6.85-5.06172839-4.1-4.07407407-11.25l.29629629-2.125c.34567901-2.5 1.48148148-4.25 4.74074074-4.25 3.25925925 0 3.90123455 1.75 3.58024695 4.225l-.3703704 2.65h-2.66666667l.37037037-2.65c.14814815-1.025-.07407407-1.825-1.25925926-1.825-1.18518518 0-1.60493827.8-1.72839506 1.825l-.27160494 2.025c-.81481481 5.825 5.20987654 3.1 4.07407407 11.25l-.44444444 3.025c-.34567901 2.475-1.45679012 4.225-4.71604938 4.225s-3.90123457-1.725-3.58024692-4.2l.44444445-3h2.64197531l-.44444445 3c-.14814815 1.025.07407408 1.825 1.25925926 1.825 1.18518519 0 1.60493827-.8 1.72839506-1.825z"/><path d="m16.5679012.35h4.271605c3.2839506 0 3.8518518 1.675 3.5061728 4.15l-.7901234 5.5c-.3456791 2.475-1.4320988 4.1-4.6913581 4.1h-1.5555555l-1.4320988 10.325h-2.6419753zm2.617284 11.275c1.1851852 0 1.6049383-.575 1.728395-1.625l.7901235-5.5c.1481482-1.025-.1481481-1.575-1.3333333-1.575h-1.5308642l-1.1851852 8.7z"/><path d="m34.4444444 24.425h-2.691358l.1728395-5.225h-3.0617284l-1.2592592 5.225h-2.6666667l6.4197531-24.1h3.3333333zm-4.9876543-7.7h2.5432099l.4691358-12.425z"/><path d="m45.3580247 17.55h2.5925926l-.4444445 3c-.345679 2.475-1.6296296 4.225-4.691358 4.225-3.2592592 0-3.9506173-1.75-3.6049383-4.225l2.271605-16.325c.345679-2.475 1.4814815-4.225 4.7654321-4.225 3.0617284 0 3.8765432 1.75 3.5308642 4.225l-.3703704 2.65h-2.5925926l.3703704-2.65c.1481481-1.025-.0987654-1.825-1.2839506-1.825s-1.6296297.8-1.7777778 1.825l-2.2716049 16.325c-.1481482 1.025.0987654 1.825 1.2839506 1.825s1.6296296-.8 1.7777777-1.825z"/><path d="m54.9382716 21.85h4.3209877l-.3456791 2.575h-6.9629629l3.3333333-24.1h6.962963l-.3703704 2.575h-4.3209876l-1.1111112 8.1h3.7283951l-.345679 2.475h-3.7283951z"/></g></g></g></svg>

<?xml version="1.0" encoding="UTF-8"?>
<svg width="175px" height="40px" viewBox="0 0 175 40" version="1.1" xmlns="http://www.w3.org/2000/svg" xmlns:xlink="http://www.w3.org/1999/xlink">
    <!-- Generator: Sketch 49 (51002) - http://www.bohemiancoding.com/sketch -->
    <title>Brand/Logo/logo-01</title>
    <desc>Created with Sketch.</desc>
    <defs></defs>
    <g id="Brand/Logo/logo-01" stroke="none" stroke-width="1" fill="none" fill-rule="evenodd">
        <rect id="#" x="0" y="0" width="175" height="40"></rect>
        <g id="Brand/Logo/Spacetime" transform="translate(7.000000, 7.000000)">
            <g id="spacetime-logo">
                <g id="Group" transform="translate(71.604938, 0.250000)" fill="#FEFBF7">
                    <polygon id="Shape" points="2.66666667 23.925 0 23.925 2.91358025 2.675 0.148148148 2.675 0.518518519 0.1 8.66666667 0.1 8.2962963 2.675 5.5308642 2.675"></polygon>
                    <polygon id="Shape" points="14.4691358 0.1 17.1111111 0.1 13.8271605 23.925 11.1851852 23.9"></polygon>
                    <path d="M26.1975309,0.1 L26.4691358,19.575 L32.1975309,0.1 L35.5061728,0.1 L32.1728395,24.2 L29.7283951,24.2 L30.8395062,15.975 C31.2098765,13.3 32.0493827,8.05 32.4691358,5.675 L27.1604938,24.075 L24.6419753,23.925 L24.3703704,5.625 C23.9753086,8.475 23.5802469,12.725 23.1604938,15.95 L22.0740741,23.925 L19.6296296,23.925 L22.9135802,0.1 L26.1975309,0.1 L26.1975309,0.1 Z" id="Shape"></path>
                    <polygon id="Shape" points="40.962963 21.6 45.2839506 21.6 44.9382716 24.175 37.9753086 24.175 41.308642 0.075 48.2716049 0.075 47.9012346 2.675 43.5802469 2.675 42.4444444 10.75 46.1728395 10.75 45.8271605 13.225 42.0987654 13.225"></polygon>
                </g>
                <polygon id="Shape" fill="#F7941D" points="62.2469136 0.35 99.4074074 24.425 51.9506173 24.425 55.2839506 0.35"></polygon>
                <g id="Group" fill="#FEFBF7">
                    <path d="M6.12345679,17.625 C7.08641975,10.775 1.0617284,13.525 2.04938272,6.375 L2.34567901,4.25 C2.69135802,1.75 3.82716049,0 7.08641975,0 C10.345679,0 10.9876543,1.75 10.6666667,4.225 L10.2962963,6.875 L7.62962963,6.875 L8,4.225 C8.14814815,3.2 7.92592593,2.4 6.74074074,2.4 C5.55555556,2.4 5.13580247,3.2 5.01234568,4.225 L4.74074074,6.25 C3.92592593,12.075 9.95061728,9.35 8.81481481,17.5 L8.37037037,20.525 C8.02469136,23 6.91358025,24.75 3.65432099,24.75 C0.395061728,24.75 -0.24691358,23.025 0.0740740741,20.55 L0.518518519,17.55 L3.16049383,17.55 L2.71604938,20.55 C2.56790123,21.575 2.79012346,22.375 3.97530864,22.375 C5.16049383,22.375 5.58024691,21.575 5.7037037,20.55 L6.12345679,17.625 L6.12345679,17.625 Z" id="Shape"></path>
                    <path d="M16.5679012,0.35 L20.8395062,0.35 C24.1234568,0.35 24.691358,2.025 24.345679,4.5 L23.5555556,10 C23.2098765,12.475 22.1234568,14.1 18.8641975,14.1 L17.308642,14.1 L15.8765432,24.425 L13.2345679,24.425 L16.5679012,0.35 L16.5679012,0.35 Z M19.1851852,11.625 C20.3703704,11.625 20.7901235,11.05 20.9135802,10 L21.7037037,4.5 C21.8518519,3.475 21.5555556,2.925 20.3703704,2.925 L18.8395062,2.925 L17.654321,11.625 L19.1851852,11.625 L19.1851852,11.625 Z" id="Shape"></path>
                    <path d="M34.4444444,24.425 L31.7530864,24.425 L31.9259259,19.2 L28.8641975,19.2 L27.6049383,24.425 L24.9382716,24.425 L31.3580247,0.325 L34.691358,0.325 L34.4444444,24.425 L34.4444444,24.425 Z M29.4567901,16.725 L32,16.725 L32.4691358,4.3 L29.4567901,16.725 L29.4567901,16.725 Z" id="Shape"></path>
                    <path d="M45.3580247,17.55 L47.9506173,17.55 L47.5061728,20.55 C47.1604938,23.025 45.8765432,24.775 42.8148148,24.775 C39.5555556,24.775 38.8641975,23.025 39.2098765,20.55 L41.4814815,4.225 C41.8271605,1.75 42.962963,0 46.2469136,0 C49.308642,0 50.1234568,1.75 49.7777778,4.225 L49.4074074,6.875 L46.8148148,6.875 L47.1851852,4.225 C47.3333333,3.2 47.0864198,2.4 45.9012346,2.4 C44.7160494,2.4 44.2716049,3.2 44.1234568,4.225 L41.8518519,20.55 C41.7037037,21.575 41.9506173,22.375 43.1358025,22.375 C44.3209877,22.375 44.7654321,21.575 44.9135802,20.55 L45.3580247,17.55 L45.3580247,17.55 Z" id="Shape"></path>
                    <polygon id="Shape" points="54.9382716 21.85 59.2592593 21.85 58.9135802 24.425 51.9506173 24.425 55.2839506 0.325 62.2469136 0.325 61.8765432 2.9 57.5555556 2.9 56.4444444 11 60.1728395 11 59.8271605 13.475 56.0987654 13.475"></polygon>
                </g>
            </g>
        </g>
    </g>
</svg>
